X:39
T:Prussians. ThoH.039, The
Q:1/2=90
M:C
L:1/8
B:Thompson's Compleat Collection of 120 Favourite Hornpipes.
Z:Village Music Project, Simon Wilson 2016
O:England.
K:F
C2|FGAB cAfd|cBAGF4|cdef gaba|gf (ef/g/)f4|
FGAB cAfd|cBAGF2C2|DFEG FdcB|A2F2-F2:|
|:(f/g/)|afed gedc|fdcB{B}A2GF|afed efga|((3edc) ((3dc=B)c4|
afed gedc|fdcB AGFE|FCB,A, B,dcB|A2F2-F2:|

